X:1
T: County Down
C:
R:Jig
Q:180
K:A
M:6/8
L:1/16
|:A2|E2A2A2 A2B2c2|B2A2A2 A4c2|E2A2A2 A2B2c2|d2B2B2 B4e2|
E2A2A2 A2B2c2|B2A2A2 A4c2|e2d2f2 a4e2|c2A2A2 A4e2|
e2c2A2 A2c2e2|e2f2g2 a4f2|e2c2A2 A2c2e2|d2B2B2 B4e2|
e2c2A2 A2c2e2|e2f2g2 a4f2|e2f2g2 a4e2|c2A2A2 A4:|
